src/icons/service-aws-code-deploy.svg

<svg enable-background="new 0 0 12 14" viewBox="0 0 12 14" xmlns="http://www.w3.org/2000/svg"><path d="m1.9 11.8-1.6-.8v-8.1l1.6-.8z" fill="#4b612c"/><path d="m7.8 10.2-5.9 1.6v-9.7l5.9 1.6z" fill="#759c3e"/><path d="m2.9 5.6 3.1-.4.1.1v3.3l-.1.1-3.1-.4z" fill="#4b612c"/><path d="m11.7 5-2.8.3-6-1 3.1-1z" fill="#3c4929"/><path d="m11.7 9-2.8-.3-6 1 3.3.8z" fill="#b7ca9d"/><path d="m2.9 12.4 3.1 1.5.1-3.4-3.2-.8z" fill="#4b612c"/><path d="m11.7 11.1-5.7 2.8v-3.4l5.7-1.5z" fill="#759c3e"/><path d="m2.9 1.6 3.1-1.5v3.4l-3.1.8z" fill="#4b612c"/><g fill="#759c3e" transform="translate(6)"><path d="m5.7 8-5.7.7v-3.5l5.7.8z"/><path d="m5.7 5-5.7-1.5v-3.4l5.7 2.8z"/></g></svg>

<svg viewBox="0 0 12 14" xmlns="http://www.w3.org/2000/svg"><path d="M1.9 11.8L.3 11V2.9l1.6-.8z" fill="#4b612c"/><path d="M7.8 10.2l-5.9 1.6V2.1l5.9 1.6z" fill="#759c3e"/><path d="M2.9 5.6L6 5.2l.1.1v3.3l-.1.1-3.1-.4z" fill="#4b612c"/><path d="M11.7 5l-2.8.3-6-1 3.1-1z" fill="#3c4929"/><path d="M11.7 9l-2.8-.3-6 1 3.3.8z" fill="#b7ca9d"/><path d="M2.9 12.4L6 13.9l.1-3.4-3.2-.8z" fill="#4b612c"/><path d="M11.7 11.1L6 13.9v-3.4L11.7 9z" fill="#759c3e"/><path d="M2.9 1.6L6 .1v3.4l-3.1.8z" fill="#4b612c"/><g fill="#759c3e"><path d="M11.7 8L6 8.7V5.2l5.7.8zM11.7 5L6 3.5V.1l5.7 2.8z"/></g></svg>
